X: 2
T: The Wheels Of The World
R: reel
M: 4/4
L: 1/8
K: Dmix
dc|:AD (DDD FAGF|EC (3CCC G,CEG|AD (3DDD FAde|=fedc Addc||AD (3DDD FAGF|EDCD EFGc|AddB cBAG|1 ECGE D2 dc:|2 ECGE D2 AB|||:dAdf afdf|ecgc acgc|dAdf afdf|edce d2 A(3BBc||dAdf afdf|ecgc acge|abag efge|1 fage d2 AB:|2 fage d2 dc||


Tune 1010	Setting 29800

